!!! OTL: Berkowitz224
!!! Chapter: 1
!!! Section: II
!!! Page: 52
!!! Mode: 
!!! Encoder: DJB
**kern
*staff1
*I"Piano
=1-
*clefG2
*k[f#]
*G:
*M6/8
8dd\
8r
8dd\
8b\
8r
8b\
=2
8cc\
8r
8cc\
8a/
8r
8a/
=3
8b/L
8a/
8g/J
8g/L
8f#/
8g/J
=4
4.b\
8a/
8r
16b\LL
16cc\JJ
=5
8dd\
8r
8dd\
8b\
8r
8r
=6
8r
8cc\L
8cc\J
8r
8a/L
8a/J
=7
8b/L
8a/
8g/J
8f#/L
8e/
8d/J
=8
!!linebreak:original
8r
8dd\L
8dd\J
4.g/
==
*-
